X:19
T:In the Moor among the Heather
M:C |
L:1/8
B:Thompson's Compleat Collection of 200 Favourite Country Dances, vol. 2 (London, 1765)
Z:Transcribed and edited by Flynn Titford-Mock, 2007
Z:abc's:AK/Fiddler's Companion
K:DEGB GEGE | EAAB ABAG | GABd dega | begB ABAG :|
|: dega fagd | eaab abag | bage dega | begB ABAG :|

